source/icons/eat.svg

<svg viewBox="0 0 25 30" xmlns="http://www.w3.org/2000/svg">
<path fill-rule="evenodd" clip-rule="evenodd" d="M1.5 0C2.05228 0 2.5 0.447715 2.5 1V6.5C2.5 7.05686 2.69203 7.81518 3.20088 8.41656C3.55978 8.84073 4.11806 9.23736 5 9.4097V1C5 0.447715 5.44772 0 6 0C6.55228 0 7 0.447715 7 1V9.40968C7.88191 9.23732 8.44023 8.84071 8.79912 8.41656C9.30797 7.81518 9.5 7.05686 9.5 6.5V1C9.5 0.447715 9.94771 0 10.5 0C11.0523 0 11.5 0.447715 11.5 1V6.5C11.5 7.44314 11.192 8.68482 10.3259 9.70844C9.58634 10.5825 8.49252 11.2344 7 11.4352V29C7 29.5523 6.55228 30 6 30C5.44772 30 5 29.5523 5 29V11.4353C3.50745 11.2344 2.41369 10.5825 1.6741 9.70844C0.807973 8.68482 0.5 7.44314 0.5 6.5V1C0.5 0.447715 0.947715 0 1.5 0ZM19.7071 0.292922C19.4211 0.00692445 18.991 -0.0786313 18.6173 0.0761497C18.2436 0.230931 18 0.595567 18 1.00003V29C18 29.5523 18.4477 30 19 30C19.5523 30 20 29.5523 20 29V20H23.5C24.0523 20 24.5 19.5523 24.5 19C24.5 13.5081 23.7373 9.28039 22.7659 6.21082C21.8038 3.17065 20.6156 1.20142 19.7071 0.292922ZM22.4911 18H20V4.51895C20.2885 5.1715 20.5807 5.93457 20.8591 6.81424C21.7051 9.48755 22.4053 13.1836 22.4911 18Z" fill="white"/>
</svg>

<svg viewBox="0 0 25 30" xmlns="http://www.w3.org/2000/svg"><path d="M1.5 0a1 1 0 0 1 1 1v5.5c0 .557.192 1.315.7 1.917.36.424.918.82 1.8.993V1a1 1 0 0 1 2 0v8.41c.882-.173 1.44-.57 1.8-.993.508-.602.7-1.36.7-1.917V1a1 1 0 1 1 2 0v5.5c0 .943-.308 2.185-1.174 3.208-.74.874-1.833 1.526-3.326 1.727V29a1 1 0 1 1-2 0V11.435c-1.493-.2-2.586-.853-3.326-1.727A5.068 5.068 0 0 1 .5 6.5V1a1 1 0 0 1 1-1zm18.207.293A1 1 0 0 0 18 1v28a1 1 0 1 0 2 0v-9h3.5a1 1 0 0 0 1-1c0-5.492-.763-9.72-1.734-12.79-.962-3.04-2.15-5.009-3.059-5.917zM22.491 18H20V4.519c.288.652.58 1.416.86 2.295.845 2.674 1.545 6.37 1.631 11.186z" fill="#fff"/></svg>
